X: 623
T: Stouts Trip tae Skea
O: Trad. Shetland
R: reel
Z: 2014 John Chambers <jc:trillian.mit.edu>
S: Page from Concord Slow Scottish Session collection, from Boston Harbor Scottish Fiddle School, Aug 2011
M: C|
L: 1/8
K: D
A |\
 "D"DBAF EDEF | "Em7"A,2B,D E3E |\
"Bm"DBAF EDEF | "A7"A,2B,C "D"D3 :|
|: A |\
"D(Bm)"d2d2 BABd | "Em"A2Bd e3f |\
[1 "Bm"defe dcBA | "Em"BdAF D3 :|\
[2 "D"abaf "G"edBA | "A7"BdAF "D"D4 |]

%%sep 1 1 500

